X: 1
T: Scatter the Mud
R: jig
M: 6/8
L: 1/8
K: Edor
FA|BEE FED|B,EE EFA|BEE FEF|AFD DFA|
BEE FED|B,EE EDB,|DEF A2 B|1AFD E:|2AFD E3|:
Bee d2 B|AFD D2 A| Bee d2 B|AFD E2 A|
Bee d2 B|AFD EDB,|DEF A2 B|AFD E3|
Bee d2 B|AFD DFA|Bee d2 e|fed e2 f|
fef d2 B|AFD EDB,|DEF A2 B|AFD EFA||
